!!!OTL: 1793. Klaglied eines Gefangenen.
!!!ODT: 1843
!!!ARE: Europa, Mitteleuropa, Deutschland, Bergstrasse, Alsbach
!!!SCT: E1793
!!!TXL: @@DE
!!!YEM: Copyright 1995, estate of Helmut Schaffrath.
**kern	**text
*ICvox	*
*M3/4	*
*k[b-]	*
*F:	*
!LO:TX:a:t=Mel. aus Alsbach an der Bergſtraße 1843.	!
{4c	Mein
=1	=1
4f	Herʒ
4f	iſt
8fL	ſo
8aJ	.
=2	=2
8aL	trau-
8fJ	.
4g;}	-rig,
{8cL	meine
8eJ	.
=3	=3
4g	Au-
4b-/	-gen
4b-/	voll
=4	=4
8b-L	Thrä-
8ccJ	.
4a	-nen,
4r}	.
=5	=5
{4f	weil
4a	ich
4cc	von
=6	=6
4.cc	die-
8a	-ſer
8b-L	Welt
8aJ}	.
=7	=7
{8gL	Ab-
8fJ	.
4e	-ſchied
4g	muß
=8	=8
8gL	neh-
8aJ	.
4f}	-men.
==	==
!!!AGN: Gefangenen - Lied, Klage
!!!ONB: ESAC (Essen Associative Code) Database: ERK3
!!!AMT: simple triple
!!!AIN: vox
!!!EED: Helmut Schaffrath
!!!EEV: 1.0
!!!GTL: Vermischter Inhalt.
!!!URL-scan: https://rosdok.uni-rostock.de/mcrviewer/recordIdentifier/rosdok_ppn745177999/iview2/phys_0572.iview2?x=-4.404412318552431&y=682.7893116176128&scale=0.6456904138606621&rotation=0&layout=singlePageLayout
!!!ENC: Anna Maria Matuszewska
!!!EEV: 2025/08/01
*-	*-
